app/img/svg-icons/vk.svg

<svg width="16" height="9" viewBox="0 0 16 9" fill="none" xmlns="http://www.w3.org/2000/svg">
<path fill-rule="evenodd" clip-rule="evenodd" d="M8.78466 8.92237C8.78466 8.92237 9.07343 8.89087 9.22133 8.73494C9.35672 8.59206 9.35202 8.32245 9.35202 8.32245C9.35202 8.32245 9.33402 7.06346 9.92955 6.87757C10.5165 6.69475 11.2701 8.09508 12.0699 8.63354C12.674 9.04066 13.1326 8.95156 13.1326 8.95156L15.2697 8.92237C15.2697 8.92237 16.3872 8.85477 15.8574 7.99215C15.8136 7.92148 15.5483 7.35382 14.2688 6.18778C12.9283 4.9672 13.1083 5.16461 14.722 3.05299C15.7048 1.76711 16.0977 0.982072 15.9748 0.646394C15.8582 0.32531 15.1351 0.410574 15.1351 0.410574L12.7296 0.425169C12.7296 0.425169 12.5511 0.401356 12.4189 0.478939C12.2898 0.554985 12.206 0.732426 12.206 0.732426C12.206 0.732426 11.8257 1.72717 11.3178 2.57366C10.2465 4.35883 9.81843 4.45331 9.64313 4.3427C9.23542 4.08383 9.33715 3.30417 9.33715 2.75034C9.33715 1.01971 9.60479 0.298425 8.81675 0.111766C8.55537 0.0495468 8.36286 0.00883521 7.69377 0.00192192C6.83531 -0.00652765 6.10909 0.00499448 5.69746 0.202407C5.42357 0.33376 5.21227 0.62719 5.3414 0.644089C5.50026 0.664829 5.86023 0.739339 6.05118 0.994363C6.29769 1.3239 6.28908 2.06285 6.28908 2.06285C6.28908 2.06285 6.43072 4.09996 5.95805 4.35268C5.63407 4.52628 5.18958 4.17217 4.23407 2.55216C3.74497 1.72256 3.3756 0.805399 3.3756 0.805399C3.3756 0.805399 3.30439 0.634104 3.17683 0.541926C3.02267 0.430546 2.80747 0.395979 2.80747 0.395979L0.521607 0.410574C0.521607 0.410574 0.178063 0.419792 0.0520703 0.566507C-0.0598359 0.696323 0.0434621 0.965941 0.0434621 0.965941C0.0434621 0.965941 1.83318 5.07627 3.86001 7.14796C5.71859 9.04681 7.82837 8.92237 7.82837 8.92237H8.78466Z" fill="white"/>
</svg>

<svg width="16" height="9" fill="none" xmlns="http://www.w3.org/2000/svg"><path fill-rule="evenodd" clip-rule="evenodd" d="M8.785 8.922s.288-.031.436-.187c.136-.143.131-.413.131-.413s-.018-1.259.578-1.444c.587-.183 1.34 1.217 2.14 1.756.604.407 1.063.318 1.063.318l2.137-.03s1.117-.067.587-.93c-.043-.07-.309-.638-1.588-1.804-1.34-1.22-1.16-1.023.453-3.135.983-1.286 1.376-2.07 1.253-2.407-.117-.32-.84-.235-.84-.235L12.73.425s-.179-.024-.311.054c-.13.076-.213.253-.213.253s-.38.995-.888 1.842c-1.072 1.785-1.5 1.88-1.675 1.769-.408-.26-.306-1.039-.306-1.593 0-1.73.268-2.452-.52-2.638C8.555.05 8.363.009 7.694.002c-.859-.009-1.585.003-1.997.2-.273.132-.485.425-.356.442.16.02.52.095.71.35.247.33.238 1.069.238 1.069s.142 2.037-.33 2.29c-.325.173-.77-.18-1.725-1.8-.489-.83-.858-1.748-.858-1.748s-.072-.17-.2-.263C3.024.43 2.808.396 2.808.396L.522.411S.178.42.052.567C-.06.697.043.966.043.966s1.79 4.11 3.817 6.182c1.859 1.899 3.968 1.774 3.968 1.774h.957z" fill="#fff"/></svg>
